X:1
T:Ecce sacerdos magnus
T:Ecce sacerdos magnus
T:Francesco Feroci
T:© 2013 cpdl
T:© 2013 cpdl
T:© 2013 cpdl
C:Francesco Feroci
Z:© 2013 cpdl
%%score [ 1 2 3 ]
L:1/8
Q:1/4=208
M:2/2
K:C
V:1 treble-8 nm="Tenor" snm="T"
V:2 treble-8 nm="Tenor" snm="T"
V:3 bass nm="Bass" snm="B"
V:1
 d8 d4 B2 c2 | d4 e4 d6 c2 | B8 B4 G2 A2 | B4 c4 B8 | A8 d8 | d4 B2 c2 d4 e4 | d4 c4 B8 | %7
w: Ec- ce sa- *|cer- dos ma- *|* gnus, sa- *|cer- dos ma-|gnus, ec-|ce sa- * cer- dos|ma- * *|
 B4 c4 B4 A4 | d4 G8 ^F2 E2 | ^F8 z8 | z16 | z16 | d8 d4 d4 | e4 d4 c8 | B4 B8 A4 | G12 F4 | %16
w: gnus, sa- cer- dos|ma- * * *|gnus,|||qui in di-|e- bus su-|is in di-|e- bus|
 E6 D2 E2 ^F2 G4- | G4 c6 c2 B4 | A8 B8 | d6 d2 d4 e4- | e4 d8 ^c4 | d8 z8 | d12 e4 | %23
w: su- * * * is|_ pla- cu- it|De- o,|pla- cu- it De-||o,|et in-|
 d6 c2 B4 ^c4 | d4 d8 e4 | d4 c4 B4 A4 | G8 z4 e4- | e4 d2 c2 d8- | d4 c8 B4 | A16 | B16 |] %31
w: ven- tus est ju-|stus. et in-|ven- tus est ju-|stus. et|_ in- * ven-|* tus est|ju-|stus.|
V:2
 z16 | z16 | G8 G4 E2 ^F2 | G4 A4 G8 | ^F4 A4 A4 B4 | A4 G4 ^F4 E2 F2 | G8 z4 d4 | d4 e4 d4 c4 | %8
w: ||Ec- ce sa- *|cer- dos ma-|gnus, ec- ce sa-|cer- dos ma- * *|gnus, ec-|ce sa- cer- dos|
 B8 A8 | z4 A4 A4 A4 | B6 A2 G4 ^F4 | G12 c4- | c4 B2 A2 B8- | B8 z4 e4- | e4 d2 c2 d8- | %15
w: ma- gnus,|qui in di-|e- * * bus|su- *|* * * is|_ in|_ di- * e-|
 d4 c4 B4 A2 B2 | c4 c6 c2 B4- | B4 A8 G4- | G4 ^F4 G4 B4- | B2 A2 G8 G4- | G2 G2 ^F4 E8 | %21
w: * bus su- * *|is pla- cu- it|_ De- *|* * o, pla-|* cu- it pla-|* cu- it De-|
 ^F4 A8 B4 | A4 G4 ^F4 G4- | G4 ^F4 G8 | A8 B4 c4 | B4 A4 d8- | d4 c2 B2 c8- | c4 B2 A2 B8 | %28
w: o, et in-|ven- tus est ju-||stus. et in-|ven- tus et|_ in- * ven-|* tus _ est|
 A12 G4- | G4 ^F2 E2 F8 | G16 |] %31
w: ju- *||stus.|
V:3
 z16 | z16 | z16 | z16 | D,8 D,4 B,,4 | D,4 E,4 D,4 C,4 | B,,4 C,4 G,8 | G,4 E,4 G,4 A,4 | %8
w: ||||Ec- ce sa-|cer- dos ma- *|* gnus, ec-|ce sa- cer- dos|
 G,8 D,8- | D,8 z4 D,4 | D,4 D,4 E,6 D,2 | C,4 B,,4 C,2 D,2 E,2 ^F,2 | G,8 z4 G,4 | %13
w: ma- gnus,|_ qui|in di- e- *|* bus su- * * *|is qui|
 G,4 G,4 A,4 E,2 ^F,2 | G,12 F,4 | E,8 D,8 | A,,6 B,,2 C,2 D,2 E,4- | E,2 E,2 C,4 D,8- | %18
w: in di- e- bus _|su- *|* is|pla- * * * *|* cu- it De-|
 D,8 G,,4 G,4- | G,2 A,2 B,6 B,2 G,4 | A,8 A,,8 | D,8 z4 D,4- | D,4 E,4 D,4 C,4 | B,,8 E,8 | %24
w: * * pla-|* * * cu- it|De- *|o, et|_ in- ven- tus|est ju-|
 D,8 G,8- | G,4 A,4 G,4 F,4 | E,8 A,8 | G,4 G,8 F,2 E,2 | F,8 F,4 G,4 | D,16 | G,,16 |] %31
w: stus. et|_ in- ven- tus|est ju-|stus. et in- *|ven- tus est|ju-|stus.|

